Numix-Circle/48x48/apps/step.svg

<?xml version="1.0" encoding="UTF-8" standalone="no"?>
<svg
   xmlns:dc="http://purl.org/dc/elements/1.1/"
   xmlns:cc="http://creativecommons.org/ns#"
   xmlns:rdf="http://www.w3.org/1999/02/22-rdf-syntax-ns#"
   xmlns:svg="http://www.w3.org/2000/svg"
   xmlns="http://www.w3.org/2000/svg"
   xmlns:xlink="http://www.w3.org/1999/xlink"
   xmlns:sodipodi="http://sodipodi.sourceforge.net/DTD/sodipodi-0.dtd"
   xmlns:inkscape="http://www.inkscape.org/namespaces/inkscape"
   viewBox="0 0 48 48"
   id="svg2"
   version="1.1"
   inkscape:version="0.91 r13725"
   width="100%"
   height="100%"
   sodipodi:docname="step.svg">
  <metadata
     id="metadata65">
    <rdf:RDF>
      <cc:Work
         rdf:about="">
        <dc:format>image/svg+xml</dc:format>
        <dc:type
           rdf:resource="http://purl.org/dc/dcmitype/StillImage" />
        <dc:title />
      </cc:Work>
    </rdf:RDF>
  </metadata>
  <sodipodi:namedview
     pagecolor="#ffffff"
     bordercolor="#666666"
     borderopacity="1"
     objecttolerance="10000"
     gridtolerance="10000"
     guidetolerance="10000"
     inkscape:pageopacity="0"
     inkscape:pageshadow="2"
     inkscape:window-width="1366"
     inkscape:window-height="713"
     id="namedview63"
     showgrid="false"
     inkscape:zoom="11.313708"
     inkscape:cx="9.5373252"
     inkscape:cy="22.187789"
     inkscape:window-x="0"
     inkscape:window-y="28"
     inkscape:window-maximized="1"
     inkscape:current-layer="svg2"
     showguides="true"
     inkscape:guide-bbox="true"
     inkscape:snap-bbox="true"
     inkscape:snap-global="true">
    <inkscape:grid
       type="xygrid"
       id="grid3847" />
  </sodipodi:namedview>
  <defs
     id="defs4">
    <linearGradient
       id="linearGradient4313"
       inkscape:collect="always">
      <stop
         id="stop4315"
         offset="0"
         style="stop-color:#b7b7b7;stop-opacity:1;" />
      <stop
         id="stop4317"
         offset="1"
         style="stop-color:#a6a6a6;stop-opacity:1" />
    </linearGradient>
    <linearGradient
       id="linearGradient3839">
      <stop
         style="stop-color:#2d3a4c;stop-opacity:1"
         offset="0"
         id="stop3841" />
      <stop
         style="stop-color:#354459;stop-opacity:1"
         offset="1"
         id="stop3843" />
    </linearGradient>
    <linearGradient
       inkscape:collect="always"
       xlink:href="#linearGradient3839"
       id="linearGradient3845"
       x1="24"
       y1="47"
       x2="24"
       y2="1"
       gradientUnits="userSpaceOnUse" />
    <radialGradient
       inkscape:collect="always"
       xlink:href="#linearGradient4313"
       id="radialGradient4276"
       cx="33.684525"
       cy="24.5"
       fx="33.684525"
       fy="24.5"
       r="3.5"
       gradientUnits="userSpaceOnUse" />
    <radialGradient
       inkscape:collect="always"
       xlink:href="#linearGradient4313"
       id="radialGradient4286"
       cx="26.684526"
       cy="24.5"
       fx="26.684526"
       fy="24.5"
       r="3.5"
       gradientUnits="userSpaceOnUse" />
    <radialGradient
       inkscape:collect="always"
       xlink:href="#linearGradient4313"
       id="radialGradient4294"
       cx="23.299591"
       cy="14.746347"
       fx="23.299591"
       fy="14.746347"
       r="3.5"
       gradientUnits="userSpaceOnUse" />
  </defs>
  <g
     id="g21">
    <path
       d="m 36.31 5 c 5.859 4.062 9.688 10.831 9.688 18.5 c 0 12.426 -10.07 22.5 -22.5 22.5 c -7.669 0 -14.438 -3.828 -18.5 -9.688 c 1.037 1.822 2.306 3.499 3.781 4.969 c 4.085 3.712 9.514 5.969 15.469 5.969 c 12.703 0 23 -10.298 23 -23 c 0 -5.954 -2.256 -11.384 -5.969 -15.469 c -1.469 -1.475 -3.147 -2.744 -4.969 -3.781 z m 4.969 3.781 c 3.854 4.113 6.219 9.637 6.219 15.719 c 0 12.703 -10.297 23 -23 23 c -6.081 0 -11.606 -2.364 -15.719 -6.219 c 4.16 4.144 9.883 6.719 16.219 6.719 c 12.703 0 23 -10.298 23 -23 c 0 -6.335 -2.575 -12.06 -6.719 -16.219 z"
       opacity="0.05"
       id="path23" />
    <path
       d="m 41.28 8.781 c 3.712 4.085 5.969 9.514 5.969 15.469 c 0 12.703 -10.297 23 -23 23 c -5.954 0 -11.384 -2.256 -15.469 -5.969 c 4.113 3.854 9.637 6.219 15.719 6.219 c 12.703 0 23 -10.298 23 -23 c 0 -6.081 -2.364 -11.606 -6.219 -15.719 z"
       opacity="0.1"
       id="path25" />
    <path
       d="m 31.25 2.375 c 8.615 3.154 14.75 11.417 14.75 21.13 c 0 12.426 -10.07 22.5 -22.5 22.5 c -9.708 0 -17.971 -6.135 -21.12 -14.75 a 23 23 0 0 0 44.875 -7 a 23 23 0 0 0 -16 -21.875 z"
       opacity="0.2"
       id="path27" />
  </g>
  <g
     id="g29">
    <path
       d="m 24 1 c 12.703 0 23 10.297 23 23 c 0 12.703 -10.297 23 -23 23 -12.703 0 -23 -10.297 -23 -23 0 -12.703 10.297 -23 23 -23 z"
       id="path31"
       style="fill:url(#linearGradient3845);fill-opacity:1.0"
       fill-opacity="1"
       fill="url(#linearGradient3764)" />
  </g>
  <g
     id="g33" />
  <g
     id="g59">
    <path
       d="m 40.03 7.531 c 3.712 4.084 5.969 9.514 5.969 15.469 0 12.703 -10.297 23 -23 23 c -5.954 0 -11.384 -2.256 -15.469 -5.969 4.178 4.291 10.01 6.969 16.469 6.969 c 12.703 0 23 -10.298 23 -23 0 -6.462 -2.677 -12.291 -6.969 -16.469 z"
       opacity="0.1"
       id="path61" />
  </g>
  <g
     transform="scale(0.98451788,1.0157256)"
     style="font-size:13.6171217px;font-style:normal;font-weight:normal;line-height:125%;letter-spacing:0px;word-spacing:0px;fill:#000000;fill-opacity:1;stroke:none;font-family:Sans"
     id="text3880" />
  <g
     transform="scale(1.0060815,0.99395525)"
     style="font-size:19.87910461px;font-style:normal;font-variant:normal;font-weight:normal;font-stretch:normal;line-height:125%;letter-spacing:0px;word-spacing:0px;fill:#000000;fill-opacity:1;stroke:none;font-family:Montserrat;-inkscape-font-specification:Montserrat"
     id="text3023" />
  <g
     transform="matrix(1.0296335,0,0,0.97121938,-0.03651564,2.4817894e-7)"
     style="font-size:18.98816872px;font-style:normal;font-variant:normal;font-weight:normal;font-stretch:normal;line-height:125%;letter-spacing:0px;word-spacing:0px;fill:#000000;fill-opacity:1;stroke:none;font-family:Montserrat;-inkscape-font-specification:Montserrat"
     id="text3791" />
  <g
     id="g5310">
    <g
       style="fill:#000000;fill-opacity:0.11764706"
       id="g4296"
       transform="translate(-0.18435194,5)">
      <path
         inkscape:connector-curvature="0"
         id="rect4298"
         transform="translate(-0.81547481,-5)"
         d="m 18,16 0,2 1.910156,0 -3.201172,6.863281 a 3.5,3.5 0 0 0 -4.18164,1.869141 3.5,3.5 0 0 0 1.693359,4.65039 3.5,3.5 0 0 0 4.652344,-1.691406 3.5,3.5 0 0 0 -1.257813,-4.404297 L 21.013672,18 27,18 27,26.039062 A 3.5,3.5 0 0 0 24,29.5 3.5,3.5 0 0 0 27.5,33 3.5,3.5 0 0 0 31,29.5 3.5,3.5 0 0 0 28,26.041016 L 28,18 l 6,0 0,8.039062 A 3.5,3.5 0 0 0 31,29.5 3.5,3.5 0 0 0 34.5,33 3.5,3.5 0 0 0 38,29.5 3.5,3.5 0 0 0 35,26.041016 L 35,18 l 3,0 0,-2 -20,0 z"
         style="opacity:1;fill:#000000;fill-opacity:0.11764706;fill-rule:nonzero;stroke:none;stroke-width:6;stroke-miterlimit:4;stroke-dasharray:none;stroke-dashoffset:0;stroke-opacity:1" />
    </g>
    <g
       transform="translate(-1.1845252,4)"
       id="g4261">
      <rect
         style="opacity:1;fill:#999d88;fill-opacity:1;fill-rule:nonzero;stroke:none;stroke-width:6;stroke-miterlimit:4;stroke-dasharray:none;stroke-dashoffset:0;stroke-opacity:1"
         id="rect3441"
         width="1"
         height="9"
         x="33.184525"
         y="13" />
      <circle
         style="opacity:1;fill:url(#radialGradient4276);fill-opacity:1;fill-rule:nonzero;stroke:none;stroke-width:6;stroke-miterlimit:4;stroke-dasharray:none;stroke-dashoffset:0;stroke-opacity:1"
         id="path3419"
         cx="33.684525"
         cy="24.5"
         r="3.5" />
      <rect
         style="opacity:1;fill:#999d88;fill-opacity:1;fill-rule:nonzero;stroke:none;stroke-width:6;stroke-miterlimit:4;stroke-dasharray:none;stroke-dashoffset:0;stroke-opacity:1"
         id="rect3447"
         width="1"
         height="9"
         x="26.184526"
         y="12.999999" />
      <circle
         style="opacity:1;fill:url(#radialGradient4286);fill-opacity:1.0;fill-rule:nonzero;stroke:none;stroke-width:6;stroke-miterlimit:4;stroke-dasharray:none;stroke-dashoffset:0;stroke-opacity:1"
         id="circle3449"
         cx="26.684526"
         cy="24.5"
         r="3.5" />
      <rect
         y="3.246346"
         x="22.799591"
         height="9"
         width="1"
         id="rect3451"
         style="opacity:1;fill:#999d88;fill-opacity:1;fill-rule:nonzero;stroke:none;stroke-width:6;stroke-miterlimit:4;stroke-dasharray:none;stroke-dashoffset:0;stroke-opacity:1"
         transform="matrix(0.90630779,0.42261826,-0.42261826,0.90630779,0,0)" />
      <circle
         r="3.5"
         cy="14.746347"
         cx="23.299591"
         id="circle3453"
         style="opacity:1;fill:url(#radialGradient4294);fill-opacity:1.0;fill-rule:nonzero;stroke:none;stroke-width:6;stroke-miterlimit:4;stroke-dasharray:none;stroke-dashoffset:0;stroke-opacity:1"
         transform="matrix(0.90630779,0.42261826,-0.42261826,0.90630779,0,0)" />
      <rect
         style="opacity:1;fill:#80624a;fill-opacity:1;fill-rule:nonzero;stroke:none;stroke-width:6;stroke-miterlimit:4;stroke-dasharray:none;stroke-dashoffset:0;stroke-opacity:1"
         id="rect3459"
         width="20"
         height="2"
         x="17.184526"
         y="11" />
    </g>
  </g>
</svg>

<svg xmlns="http://www.w3.org/2000/svg" xmlns:xlink="http://www.w3.org/1999/xlink" viewBox="0 0 48 48">
 <defs>
  <linearGradient id="linearGradient4313">
   <stop style="stop-color:#b7b7b7;stop-opacity:1"/>
   <stop offset="1" style="stop-color:#a6a6a6;stop-opacity:1"/>
  </linearGradient>
  <linearGradient id="linearGradient3845" y1="47" x2="0" y2="1" gradientUnits="userSpaceOnUse">
   <stop style="stop-color:#2d3a4c;stop-opacity:1"/>
   <stop offset="1" style="stop-color:#354459;stop-opacity:1"/>
  </linearGradient>
  <radialGradient xlink:href="#linearGradient4313" id="radialGradient4276" cx="33.685" cy="24.5" r="3.5" gradientUnits="userSpaceOnUse"/>
  <radialGradient xlink:href="#linearGradient4313" id="radialGradient4286" cx="26.685" cy="24.5" r="3.5" gradientUnits="userSpaceOnUse"/>
  <radialGradient xlink:href="#linearGradient4313" id="radialGradient4294" cx="23.3" cy="14.746" r="3.5" gradientUnits="userSpaceOnUse"/>
 </defs>
 <g>
  <path d="m 36.31 5 c 5.859 4.062 9.688 10.831 9.688 18.5 c 0 12.426 -10.07 22.5 -22.5 22.5 c -7.669 0 -14.438 -3.828 -18.5 -9.688 c 1.037 1.822 2.306 3.499 3.781 4.969 c 4.085 3.712 9.514 5.969 15.469 5.969 c 12.703 0 23 -10.298 23 -23 c 0 -5.954 -2.256 -11.384 -5.969 -15.469 c -1.469 -1.475 -3.147 -2.744 -4.969 -3.781 z m 4.969 3.781 c 3.854 4.113 6.219 9.637 6.219 15.719 c 0 12.703 -10.297 23 -23 23 c -6.081 0 -11.606 -2.364 -15.719 -6.219 c 4.16 4.144 9.883 6.719 16.219 6.719 c 12.703 0 23 -10.298 23 -23 c 0 -6.335 -2.575 -12.06 -6.719 -16.219 z" style="opacity:0.05"/>
  <path d="m 41.28 8.781 c 3.712 4.085 5.969 9.514 5.969 15.469 c 0 12.703 -10.297 23 -23 23 c -5.954 0 -11.384 -2.256 -15.469 -5.969 c 4.113 3.854 9.637 6.219 15.719 6.219 c 12.703 0 23 -10.298 23 -23 c 0 -6.081 -2.364 -11.606 -6.219 -15.719 z" style="opacity:0.1"/>
  <path d="m 31.25 2.375 c 8.615 3.154 14.75 11.417 14.75 21.13 c 0 12.426 -10.07 22.5 -22.5 22.5 c -9.708 0 -17.971 -6.135 -21.12 -14.75 a 23 23 0 0 0 44.875 -7 a 23 23 0 0 0 -16 -21.875 z" style="opacity:0.2"/>
 </g>
 <g>
  <path d="m 24 1 c 12.703 0 23 10.297 23 23 c 0 12.703 -10.297 23 -23 23 -12.703 0 -23 -10.297 -23 -23 0 -12.703 10.297 -23 23 -23 z" style="fill:url(#linearGradient3845);fill-opacity:1"/>
 </g>
 <g>
  <path d="m 40.03 7.531 c 3.712 4.084 5.969 9.514 5.969 15.469 0 12.703 -10.297 23 -23 23 c -5.954 0 -11.384 -2.256 -15.469 -5.969 4.178 4.291 10.01 6.969 16.469 6.969 c 12.703 0 23 -10.298 23 -23 0 -6.462 -2.677 -12.291 -6.969 -16.469 z" style="opacity:0.1"/>
 </g>
 <g>
  <g transform="translate(-0.18435194,5)" style="fill:#000;fill-opacity:0.118">
   <path transform="translate(-0.81547481,-5)" d="m 18 16 0 2 1.91 0 -3.201 6.863 a 3.5 3.5 0 0 0 -4.182 1.869 3.5 3.5 0 0 0 1.693 4.65 3.5 3.5 0 0 0 4.652 -1.691 3.5 3.5 0 0 0 -1.258 -4.404 l 3.398 -7.287 5.986 0 0 8.04 a 3.5 3.5 0 0 0 -3 3.461 3.5 3.5 0 0 0 3.5 3.5 3.5 3.5 0 0 0 3.5 -3.5 3.5 3.5 0 0 0 -3 -3.459 l 0 -8.04 l 6 0 0 8.04 a 3.5 3.5 0 0 0 -3 3.461 3.5 3.5 0 0 0 3.5 3.5 3.5 3.5 0 0 0 3.5 -3.5 3.5 3.5 0 0 0 -3 -3.459 l 0 -8.04 l 3 0 0 -2 -20 0 z" style="opacity:1;stroke:none;fill-rule:nonzero"/>
  </g>
  <g transform="translate(-1.1845252,4)">
   <rect width="1" height="9" x="33.18" y="13" style="fill:#999d88;opacity:1;fill-opacity:1;stroke:none;fill-rule:nonzero"/>
   <circle cx="33.685" cy="24.5" r="3.5" style="fill:url(#radialGradient4276);opacity:1;fill-opacity:1;stroke:none;fill-rule:nonzero"/>
   <rect width="1" height="9" x="26.18" y="13" style="fill:#999d88;opacity:1;fill-opacity:1;stroke:none;fill-rule:nonzero"/>
   <circle cx="26.685" cy="24.5" r="3.5" style="fill:url(#radialGradient4286);opacity:1;fill-opacity:1;stroke:none;fill-rule:nonzero"/>
   <rect y="3.246" x="22.8" height="9" width="1" transform="matrix(0.90630779,0.42261826,-0.42261826,0.90630779,0,0)" style="fill:#999d88;opacity:1;fill-opacity:1;stroke:none;fill-rule:nonzero"/>
   <circle r="3.5" cy="14.746" cx="23.3" transform="matrix(0.90630779,0.42261826,-0.42261826,0.90630779,0,0)" style="fill:url(#radialGradient4294);opacity:1;fill-opacity:1;stroke:none;fill-rule:nonzero"/>
   <rect width="20" height="2" x="17.18" y="11" style="fill:#80624a;opacity:1;fill-opacity:1;stroke:none;fill-rule:nonzero"/>
  </g>
 </g>
</svg>
